X: 131
T:Sitting on the Throne
M:C|
L:1/8
C:James Kelly
R:reel
D:James Kelly and Zan McLeod: The Ring Sessions
Z:Devin McCabe
K:A
A2eA fAeA | B2fB gBfB | c2gc acgc | d2ad bdad |
!A2eA fAeA | B2fB gBfB | AcFG ABcA |1 BdcB AFFG :|2 BdcB AFFE |
!:FccB ~c3e | f~c3 fgaf | gccB c^def | g2bg afge |
!fccB ~c3g | fcfg agfg | fecB AGAB |1 cdBc AFFE:|2 cdBc AFFE ||
!A2eA faec | ABcA (3Bcd cA | B~E3 Bdcd | BAFG AFEG |
!A2eA faec | ABce a2ga | (3bag (3agf gbaf | e^def ge=dB :|
